X:1
T: C Major William Billings, 1770
T:Thomas Sternhold, 1561 (Psalm 18, Stanzas 9 and 10)        
T:The Lord descended from above
T:Transcribed from The New-England Psalm-Singer, 1770.
%%score [ 1 2 3 4 ]
L:1/8
Q:1/4=100
M:3/4
K:C
V:1 treble nm="Treble" snm="Tr."
V:2 treble nm="Counter" snm="C."
V:3 treble-8 nm="Tenor" snm="T."
V:4 bass nm="Bass" snm="B."
V:1
"^Vigoroso" c2 | A2 Bc d2 | e2 d2 d2 | e2 e2 c2 | e2 AB c2 | B4 z2 | B2 c2 c2 | B2 c2 e2- | %8
 e2 d2 dd | (([ce]6 | [Bd]6 | [ce]6)) | f2 ed cB | [ce]6 | %14
[M:2/2][Q:1/4=120] z4"^On cherubs and on cherubims full  royally   he" c4 | e2 e2 e2 e2 | %16
 f2 f2 f2 g2 | c2 Bc d2 ec |"^rode;" (B3 A G4) |[M:3/4][Q:1/4=70] z6 | z6 | z6 | z6 | %23
[M:2/2][Q:1/4=120] z4 c4 | c2 c2 c2 c2 | B2 B2 B2 e2 | c2 e2 e2 d2 | d8 | z4 c4 | c2 c2 (e4 | %30
 f2) d2 (c4 | B2) A2 (B2 c2 | d4) z4 |[M:3/2][Q:1/4=200]"^Grave" c4 (G8 | c12 | d4 e4 d4 | c8 B4 | %37
 c4 B2 c2 d4 | e4 g4 e4 | c4 f4 d4 | G4 c4 d4 | G4 B4) c4 | (d4 c4) B2 d2 | e12 |: %44
[M:3/4][Q:1/4=120] z6 | z6 | z6 | z6 | z6 | z6 | z6 | z6 | z4 c2 | (e>dc>d e2) | d2 cf dg | e6 :| %56
[M:2/2][Q:1/4=120] z4 c4 | c2 c2 c2 B2 | A2 B2 c2 B2 | A2 B2 c2 d2 | [GB]8 | z8 | z8 | z8 | z8 | %65
[M:3/2] z8"^Came  fly      –         –      ing          all _____________________________       a    –  broad.           The   Lord    de – scen–" c4 | %66
 edcdedcd e4 | (g2 e2 c2 G2 c4 | e2 A2 c4) [Bd]4 | [ce]12 | z8 e4 | e4 c4 (c2 e2) | %72
"^–ded  from  a –bove, And bowed the  heav'ns _____ most high; And  un  –  der   –   neath    his        feet            he      cast  The  dark    –       –      –" (f2 d2) (3(d2 e2 f2) g4 | %73
 f4 e4 e4 | f4 (3(g2 f2 e2 e4) | e4 g8 | d4 (3(c2 d2 e2) (3(e2 f2 g2) | %77
 (3(f2 e2 d2) (3(c2 d2 e2) (3(d2 e2 f2) | (3(g2 f2 e2) d6 d2 | (e2 f2 g2 c4 d2 | %80
"^–        –    ness of the sky." G2 c2 f2 e2) d4 | c4 B4 c4 | z12 | z12 | z12 | z12 | z12 | z12 | %88
 z12 | z12 | z12 | %91
"^Came fly      –        –        ing  all _______    a – broad,  Came fly        –           –      ing  all       a – broad.             Hal – le – lu  –  jah,  Praise  ye    the" G4 (c2 e2 c2 e2 | %92
 c2 e2 f2) d2 (e2 c2) | (d2 B2) c8 | c4 (e2 c2 e2 c2 | e2 c2 d2) B2 (c2 f2) | d4 e8 | %97
 z8[Q:1/4=170]"^Choro grando" G4 | c4 c4 B4 | A4 d4 f4 | %100
"^Lord.  A – men.   Hal – le – lu – jah,   A     –  men.  Hal – le–lu–jah.  A – men.    A  – men, A–men. Praise ye the Lord,  A – men.___  A – men. ___" d4 e4 g4 | %101
 g4 d4 e4 | d4 [Bd]8 | [ce]4 c8 | c4 A4 c4 | B4 (c4 B4) | A4 c4 d4 | (G2 c2) B4 B4 | c4 e8 | %109
 d4 (c4 f2 e2) | d4 (c4 g2 f2) | %111
"^A   –  men. _____   A     –    men. ___________________  Hal–le–lu – jah, Praise ye  the Lord, Hal–le – lu – jah,  Hal–le–lu–jah, Praise the Lord, A–men," (e2 d2) (c4 f2 e2) | %112
 (d2 cB) (c2 A2 c2 Bd | c4) c3 c G4 | A4 c4 d4 | e4 d4 c3 c | e4 e4 f3 e | d4 d4 c3 c | G4 G4 c4 | %119
"^A       –      men. _______                 Hal–le–lu–jah,  A  –  men.       Hal–le–lu–jah,  A–men,          A–men.           A  –  men.          Amen, Hal –le–lu– jah," (B2 c2 d2 c2) (B2 A2 | %120
 G8) z4 |: e3 d e4 c4 | G4 A4 z4 | c3 B c4 e4 | c4 f4 z4 | d4 e4 z4 | d4 e4 z4 | d4 e4 d4 | %128
 c4 d4 e4 |"^A    –   men." d4 e8 :|[M:4/4][Q:1/4=80]"^Adagio" z4 e4 | c4 c4 | c4 A4 | c4 [Bd]4 | %134
 [Gce]8 |] %135
V:2
"^The Lord de–scen–ded from a–bove, And bowed the heav'ns most high;   And   un – der  –  neath his feet _____       he       cast  The" G2 | %1
 A2 G2 F2 | E2 G2 G2 | G2 G2 A2 | G2 F2 E2 | G4 z2 | G2 G2 G2 | E2 E2 G2- | G2 F2 GG | %9
"^dark         –         –         –         –         –         –         –         ness    of __________  the   sky." ([EG-]6 | %10
 [DG]6 | [EG]6) | A2 G3 G | G6 |[M:2/2] z4 G4 | G2 G2 G2 G2 | A2 A2 A2 G2 | A2 G2 F2 E2 | %18
"^rode;" G8 |[M:3/4] z6 | z6 | z6 | z6 | %23
[M:2/2] z4"^On cherubs and on cherubims full  royally he rode,  And" G4 | G2 G2 G2 G2 | %25
 G2 G2 G2 G2 | A2 G2 G2 F2 | G8 | z4 E4 | %29
"^on the wings   of migh – ty winds ______       came fly         –         –         –         –         –         –         –         –         –         –         –         –             ing" E2 E2 (E4 | %30
 A2) G2 (A4 | G2) F2 G4- | G4 z4 |[M:3/2] E4 (E4 D4 | E4 E4 G4 | G12 | A4 G8 | G4 E4 A4 | G4 G8 | %39
 G4 A8 | G4 E4 A4) | G12 |"^all      a   –  broad." (G4 E4) G4 | G12 |:[M:3/4] z6 | z6 | z6 | z6 | %48
 z6 | z6 | z6 | z6 | z4"^The" E2 | %53
"^dark         –         ness  of   the    sky.                       On   cherubs  and on cherubims   full   roy – al – ly   he      rode,          And  on  the  wings of" (G>AG>F E2) | %54
 A2 GA G2 | G6 :|[M:2/2] z4 G4 | G2 G2 G2 G2 | A2 G2 G2 G2 | A2 G2 G2 F2 | G8 | z4 G4 | %62
 G2 G2 G2 G2 | %63
"^migh–ty                winds                         Came  fly      –         –         –        –  ing                           all ________     a   –  broad." E2 (G4 F2) | %64
 (F3 E D4) |[M:3/2] z8 [EG]4 | [EG]12 | [EG]12 | (E2 F2 G2 A2) G4 | G12 | z12 | z12 | z12 | z12 | %74
 z12 | z12 | z12 | z12 | z12 | z12 | z12 | z12 | z12 | z12 | z12 | z12 | z12 | z12 | z12 | z12 | %90
 z12 | %91
"^Came fly     –    ing                 all                a – broad,   Came fly        –           –      ing  all       a – broad.            Hal – le – lu  –  jah,    A  –  men,   A –" G4 G8 | %92
 G8 E4 | G4 G8 | E4 (G8- | G4 A2) A2 (G2 A2) | G4 G8 | z8 E4 | G4 G4 E4 | A4 A4 A4 | %100
"^–men. Hal – le   –  lu – jah, A– men.  Hal – le –lu–jah. Praise ye the Lord, Hal–le–lu–jah, A–men, A–men,  A – men,   A – men,       Hal –le –lu –" G4 G4 E4 | %101
 E4 D4 A4 | A4 G4 G4 | G4 A8 | G4 F4 G4 | G4 E4 G4 | A4 G4 F4 | G4 G4 G4 | G4 G8 | G4 G8 | %110
 G4 E4 E4 | %111
"^– jah, Praise ye    the        Lord,     A      –    men,    A  –  men,   A – men.         Amen, Praise the Lord.        A     –    men.                         A – men." G4 A4 G4 | %112
 G4 E4 E4 | G4 A4 G4 | A4 G8 | G4 G4 G3 G | G4 z4 A4 | G8 z4 | E4 G4 z4 | %119
"^A  –  men,                     A–men,               A – men.           A–men,            A – men, A–men.          A–men.           A  –  men.          A – men.     Hal–le–lu–" A4 A4 z4 | %120
 z4 E4 D4 |: z4 G4 G4 | z4 A4 A4 | z4 G4 C4 | G4 A4 z4 | G4 G4 z4 | G4 G4 z4 | G4 G4 z4 | %128
 G4 G4 G4 | %129
"^– jah,     A – men.                     Hal – le  – lu  –  jah,  A  – men,  A  –  men." G4 G4 G4 :| %130
[M:4/4] z4 G4 | G4 A4 | G4 A4 | G4 G4 | [EG]8 |] %135
V:3
 c2 | c2 G2 AB | c2 dc BA | G2 G2 c2 | Bc d2 e2 | d4 z2 | df ec ef | g2 G2 (ce | dc B)A GG | %9
 (cBcdec | dcdefd | edefge | f)d g/f/ef/e/d | c6 | %14
[M:2/2] z4"^The  dark – ness     of                     the" c4 | c4 c4 | c8 | c8 |"^rode;" d8 | %19
[M:3/4] z6 | z6 | z6 | z6 |[M:2/2] z4 c4 | e2 e2 e2 e2 | d2 de d2 G2 | c2 c2 B2 A2 | G8 | z4 G4 | %29
 G2 G2 (c3 d | c2) B2 (A4 | d2) c2 (B2 A2 | G4) z4 |[M:3/2] G4 (c4 B4 | A4 G4 e4 | d4 c4 B4 | %36
 f4 e4 d4 | c4 g4 f4 | e4 d4 c4 | e4 d4 f4 | e4 g4 f4 | e4 d4) c4 | (B4 c4) d2 B2 | c12 |: %44
[M:3/4] z4"^The Lord descended  from above, And bowed the heav'ns most high; And  un–der–neath his feet  he   cast    The" c2 | %45
 cd ef gf | ed cB c2 | G2 G2 cd | ef g2 f2 | g4 z2 | g2 gf ed | c2 G2 fe | dc B2 G2 | (c>de>f g2) | %54
 f2 ec dB | c6 :|[M:2/2] z4 c4 | e2 e2 e2 ed | cd ef g2 G2 | cd ef g2 fe | d8 | %61
 z4"^And on the wings" d4 | d2 d2 (ef/e/ d2) | %63
"^of  migh   –  ty   winds                          Came  fly      –         –         –        –         –         –       –      ing  all ____   a – broad.           The   Lord   de – scen–" c2 (de/d/ c2) B2 | %64
 (A4 G4) |[M:3/2] z8 G4 | (c2 G2 A2 c2 B2 G2 | A2 B2 c2 d2 e2 f2 | g2) a2 (g2 f2 e2) d2 | c12 | %70
 z8 c4 | G4 c4 (e2 c2) | %72
"^–ded  from  a –bove, And bowed the  heav'ns _____ most high; And  un  –  der   –   neath    his        feet            he      cast  The  dark    –       –      –" A4 (f2 d2) (e2 c2) | %73
 B4 G4 (c3 d | c2) d2 (e3 f g2 f2) | e4 d8 | d4 (3(e2 f2 g2) (3(c2 d2 e2) | %77
 (3(d2 e2 f2) (3(e2 f2 g2) (3(f2 e2 d2) | (3(e2 d2 c2) d6 G2 | (c4 B2 A2 G2 F2 | %80
"^–        –    ness of the sky.    On   che–rubs   and  on  che – ru–bims  full   ro     –        –        yal–ly  he  rode,  And on the wings of mighty winds" E2 c2 G4) F4 | %81
 E4 D4 C4 | z8 c4 | (c3 e d2) c2 B4 | G4 (c2 B2 c2) e2 | d4 z4 G4 | (c2 B2 c2 d2 e2 f2 | %87
 g2) f2 e4 (d2 c2) | d8 d4 | e2 c2 (B2 c2 d2) G2 | (c4 d2) B2 G4 | %91
"^Came fly      –        –        ing  all __________   abroad.   Came fly        –           –      ing  all       a – broad.            Hal – le – lu  –  jah,    Hal  –  le  –  lu –" c4 (e2 c2 e2 c2 | %92
 e2 c2 d2) B2 (cdef | g2) G2 c8 | G4 (c2 e2 c2 e2 | c2 e2 f2) d2 (e2 c2) | (d2 B2) c8 | z8 c4 | %98
 (c2 d2) (e2 f2) g4 | c4 (f2 e2) (d2 c2) | %100
"^–jah,    A  – men. Praise ye the Lord, A     –    men,                     A  –  men,           A – men,                Hal –le  – lu – jah,             A – men,       A – men." d4 G4 (c2 d2) | %101
 (e2 f2) g4 c4 | (f2 e2) d8 | c8 z4 | z4 z4 e4 | d4 z4 z4 | (c2 d2) e4 z4 | z4 d4 d4 | e4 c4 z4 | %109
 z4 G4 c4 | z4 g4 c4 | %111
 z4"^A –  men,                   A   –    men,                  A  –    men,   A – men,                           A     –     men.                         A  – men,  A   –   men,        A  –" f4 d4 | %112
 z4 g4 g4 | z4 c4 c4 | f4 e4 z4 | z4 z4 G4 | c4 z4 z4 | d4 G4 e4 | g4 z4 e4 | %119
"^–men,        A   –    men,               Hal–le–lu–jah,  Hal–le–lu–jah, Hal–le–lu–jah,   A–men, ____  A – men, ___   A –   men. ____    A –men, ______________" d4 z4 d4 | %120
 d4 z4 z4 |: c3 B c4 e4 | d3 c d4 f4 | e3 d e4 g4 | G4 (c4 f2 e2) | d4 (c4 g2 f2) | %126
 (e2 d2) (c4 f2 e2) | d4 (c4 G4 | c4 B4 c4) |"^A    –   men." (3(d2 c2 B2) c8 :|[M:4/4] z4 c4 | %131
 e4 f4 | g4 f4 | e4 d4 | c8 |] %135
V:4
 C,2 | F,2 E,2 D,2 | C,2 G,2 G,F, | E,D, C,2 F,2 | E,2 D,2 C,2 | [G,,G,]4 z2 | [G,,G,]2 C,2 C,2 | %7
 E,2 E,2 C,2- | C,2 D,2 G,/F,/ E,/D,/ | ((C,6 | [G,,G,]6 | C,6)) | D,2 E,F, G,G,, | C,6 | %14
[M:2/2] z4"^On cherubs and on cherubims full  royally   he" C,4 | C,2 C,2 C,2 C,2 | %16
 F,2 F,2 F,2 E,2 | F,2 E,2 D,2 C,2 | %18
"^rode;                      And on the wings of mighty winds came flying all abroad." [G,,G,]8 | %19
[M:3/4] z4 C2 | CB, A,G, F,E, | D,C, G,/F,/ E,/D,/ C,D, | E,F, G,G,, C,2 |[M:2/2] z4 C,4 | %24
 C,2 C,2 C,2 C,2 | G,2 G,2 G,2 E,2 | F,2 E,2 G,2 D,2 | [G,,G,]8 | z4 C,4 | C,2 C,2 ((C,4 | %30
 [F,,F,]2)) [G,,G,]2 (([F,,F,]4 | [G,,G,]2)) [F,,F,A,]2 [G,,G,]4- | [G,,G,]4 z4 | %33
[M:3/2] C,4 (C,4 G,,4 | A,,4 C,4 C,4 | [G,,G,]4 C,4 G,,4 | A,,4 C,4 [G,,G,]4 | C,4 E,4 D,4 | %38
 C,4 [G,,G,]4 C,4 | C,4 D,4 D,4 | C,4 E,4 D,4 | C,4 [G,,G,]4) [E,,E,]4 | %42
 (([G,,G,]4 [A,,A,]4)) [G,,G,]4 | C,12 |:[M:3/4] z4 C,2 | C,2 C,2 G,2 | G,2 F,2 E,D, | %47
 C,2 E,2 F,2 | G,F, [C,C]2 [D,D]2 | [G,,G,]4 z2 | G,F, E,D, C,2 | F,2 E,2 D,2 | D,2 G,F, E,D, | %53
 C,6 | D,2 E,F, G,2 | C,6 :|[M:2/2] z4 C,4 | C,2 C,2 C,2 E,2 | F,2 E,D, C,2 E,2 | %59
 F,2 E,D, C,2 D,2 | [G,,G,]8 | z4 [G,,G,]4 | [G,,G,]2 [G,,G,]2 (C2 G,2) | %63
"^of  migh   –  ty   winds                         Came  fly      –         –         –        –  ing                           all ________     a   –  broad." A,2 (G,F, E,2) D,2 | %64
 (D,4 G,4) |[M:3/2] z8 C,4 | [C,E,]12 | [C,E,]12 | (C,2 D,2 E,2 F,2) G,4 | C,12 | z8 C,4 | %71
 (3(C,2 D,2 E,2) F,4 E,4 | D,4 D,4 C,4 | D,4 E,4 C,4 | F,4 E,3 D, C,4 | C,4 [G,,G,]8 | %76
 [G,,G,]4 C,4 C,4 | D,4 E,4 D,4 | C,4 G,6 G,2 | (A,4 G,2 F,2 E,2 D,2 | C,3 D, E,4) F,4 | %81
 G,4 G,,4 C,4 | z12 | z12 | z12 | %85
 z4 z4"^full   ro     –        –        yal–ly   he      rode," C,4 | (C,2 F,,2 A,,2 B,,2 C,2 D,2 | %87
 E,2) D,2 C,4 D,4 | [G,,G,]8 z4 | z12 | z12 | C,4 ((C,8- | C,4 [G,,G,]2)) [G,,G,]2 (([A,,A,]4 | %93
 [G,,G,]2)) [G,,G,]2 C,8 | C,4 (C,8- | C,4 D,2) D,2 (E,2 F,2) | G,4 C,8 | %97
 z8"^Hal – le – lu  –  jah,    A  – men,   A –" C,4 | C,4 (C,2 D,2) E,4 | (F,2 E,2) D,4 D,4 | %100
"^–men. Praise ye  the Lord, A –men.  Hal–le – lu –jah,    Amen,  Amen. Praise   ye          the   Lord,  A     –   men,            A  –  men.      Hal – le –" (G,2 F,2) (E,2 D,2) C,4 | %101
 C,4 [G,,G,]4 [A,,A,]4 | [F,,F,]4 [G,,G,]4 [G,,G,]4 | C,4 F,8 | E,4 D,4 C,4 | G,4 (A,4 G,4) | %106
 (F,4 E,4) D,4 | C,4 [G,,G,]8 | C,12 | G,,4 C,8 | [G,,G,]4 C,8 | %111
"^–lu  –  jah,   A    –   men. ________________           Praise  ye  the   Lord,  A– men,  Hal – le – lu    –     jah,           A      –    men.       Hal – le – lu – jah,  A –" E,4 F,4 G,4 | %112
 (G,4 F,4 C,4) | C,4 F,4 E,4 | D,4 C,4 [G,,G,]4 | [C,C]4 [G,,G,]4 C,4 | C,4 z4 D,4 | %117
 [G,,G,]8 C,3 C, | C,4 C,4 C,4 | %119
"^–men,   A       –      men, Amen.                A–men,            A – men.            A–men,  A–men,           A–men,           A – men,            A – men.    Amen, Hal–" D,4 D,8 | %120
 G,,4 C,4 G,4 |: z4 C,4 C,4 | z4 D,4 D,4 | z4 C,4 C,4 | [C,E,]4 [F,,F,]4 z4 | [G,,G,]4 C,4 z4 | %126
 [G,,G,]4 C,4 z4 | [G,,G,]4 C,4 z4 | C,4 [G,,G,]4 [E,,E,]4 | %129
"^–le      –   lu  – jah." [G,,G,]4 C,4 C,4 :|[M:4/4] z4 C,4 | C,4 [F,,F,]4 | [E,,E,]4 [F,,D,]4 | %133
 C,4 [G,,G,]4 | [C,,C,]8 |] %135

